X:1
T:All Alone
T:Charles Austin Miles, 1915
T:All Alone
T:Public Domain
T:Public Domain
C:Charles Austin Miles, 1915
Z:Public Domain
%%score 1 2
L:1/8
M:4/4
K:Ab
V:1 treble 
V:2 bass 
V:1
 [A,C][B,D] | [CE][=B,=D][CE][CA] [F_d]2 [Ec]2 | [DF][FB]- [FB]4 [FA]>[DF] | [EG]6 [DF]>[=B,=D] | %4
w: 1.~Have you|ev- er tried to bear your|bur- dens * All a-|lone? All a-|
w: 2.~Don’t you|know He trod the wine- press|for you? * All a-|lone? All a-|
w: 3.~Don’t you|know that He has bought your|par- don * All a-|lone? All a-|
 [CE]6 [A,C]>[B,D] | [CE][=B,=D][CE][CA] [F_d]2 [Ec]2 | [DF][FB]- [FB]4 [FA][DF] | %7
w: lone? Don’t you|know there’s one who waits to|help you, * Who will|
w: lone? And the|bur- den that He bore in|meek- ness, * Such a|
w: lone? And your|gra- ti- tude for such a|mer- cy * Un- to|
 [=Dc] [DB]2 [DA] [DF] [Dc]2 [D_c] | [DB]4 z |:"^Refrain" [Fd][Ed][C=A] | %10
w: make all your bur- dens His|own?||
w: bur- den no o- ther has|known.||
w: Je- sus you ne- ver have|shown.||
 [DB] [DB]2 [C=A] [DB]2 [Ec]2 | [CA] [CA]2 [A,C] [CE]3 [CE] | [DF] [FA]2 [DF] [CE] [CA]2 [CA] | %13
w: |||
w: |||
w: |||
 [=Dc][DB][DB][Dc] [_DB] :| [DF][FA][FA][FB] [Ec][_Ge][Fe][Fd] | [Ec]2 [CE]2 [DB]3 [CA] | [CA]6 |] %17
w: ||||
w: ||||
w: ||||
V:2
 [A,,E,][A,,E,] | [A,,A,][A,,A,][A,,A,][A,,A,] [A,,A,]2 [A,,A,]2 | [D,A,][D,D]- [D,D]4 z2 | %3
w: ~ ~|~ ~ ~ ~ ~ ~|~ ~ *|
w: ~ ~|~ ~ ~ ~ ~ ~|~ ~ *|
 z2 [E,B,][E,B,] [E,B,]2 z2 | z2 [A,,A,][A,,F,] [A,,E,]2 [A,,E,]>[A,,E,] | %5
w: ~ ~ ~|~ ~ ~ ~ ~|
w: ~ ~ ~|~ ~ ~ ~ ~|
 [A,,A,][A,,A,][A,,A,][A,,A,] [A,,A,]2 [A,,A,]2 | [D,A,][D,D]- [D,D]4 [D,A,][D,A,] | %7
w: ~ ~ ~ ~ ~ ~|~ ~ * ~ ~|
w: ~ ~ ~ ~ ~ ~|~ ~ * ~ ~|
 [B,,A,] [B,,A,]2 [B,,A,] [B,,A,] [B,,A,]2 [B,,A,] | [E,G,]4 z |: [E,G,][E,G,][E,^F,] | %10
w: ~ ~ ~ ~ ~ ~|~|When I have|
w: ~ ~ ~ ~ ~ ~|~|When I have|
 [E,G,] [E,G,]2 [E,^F,] [E,G,]2 [E,G,]2 | [A,,E,] [A,,E,]2 [A,,E,] [A,,A,]3 [A,,A,] | %12
w: bur- dens to bear which|no one can share, I|
w: cross- es to bear, my|Sav- ior is there, And|
 [D,A,] [D,D]2 [D,A,] [A,,A,] [A,,E,]2 [A,,A,] | [B,,F,][B,,A,][B,,A,][B,,A,] [E,G,] :| %14
w: take them to Je- sus, The|Man of Cal- va- ry;|
w: ~ ~ ~ ~ ~ ~|~ ~ ~ ~ ~|
 [D,A,][D,D][D,D][D,A,] [A,,A,][C,A,][D,A,][D,A,] | [E,A,]2 [E,A,]2 [E,G,]3 [A,,E,] | [A,,E,]6 |] %17
w: |||
w: al- ways takes the hea- vy end, and|gives the light to|me.|

